svg/600/outlined/arrow_range-fill.svg

<svg xmlns="http://www.w3.org/2000/svg" width="48" height="48" viewBox="0 -960 960 960"><path d="M265.435-278.869 65.869-478.435l199.566-199.566 55.566 56.566-102.826 101.826H741.39L637.999-621.435l57.131-56.566 198.566 199.566L694.13-278.869l-57.696-56.566L741.39-438.826H216.61l104.391 103.391-55.566 56.566Z"/></svg>

<svg xmlns="http://www.w3.org/2000/svg" width="48" height="48" viewBox="0 -960 960 960"><path d="M265.43-278.87 65.87-478.43 265.43-678 321-621.43 218.18-519.61h523.21L638-621.43 695.13-678 893.7-478.43 694.13-278.87l-57.7-56.56 104.96-103.4H216.61L321-335.43l-55.57 56.56Z"/></svg>
